X: 10742
Q: "Jig time."
M: 6/4
L: 1/8
K: Em
e3(gfe) ^d2B2(ef) | g2g2g2 f2f2f2 |\
e3g(fe) ^d2B2e2 | ^d2B2B2 B4B2 |\
e3g(fe) ^d2B2(ef) | g2g2g2 f2f2f2 |\
(ed)(cB)(AG) A3c (BA) | G2E2E2 E4 :|
|: (EF) |\
(ed)(cB)(AG) (AGAc)(BA) | G2E2E2 E4 :|


